Origami/16x16/apps/google-agenda.svg

<svg width="16" height="16" version="1" xmlns="http://www.w3.org/2000/svg">
 <path d="m3e-7 3.4286v11.429c0 0.632 0.50971 1.142 1.1429 1.142h13.714c0.633 0 1.143-0.51 1.143-1.143v-11.429h-16z" style="fill:#4384f1"/>
 <path d="m1.1429 3e-7h13.714c0.633 0 1.143 0.50971 1.143 1.1429v2.8571h-16l3e-7 -2.8571c0-0.63319 0.50971-1.1429 1.1429-1.1429z" style="fill:#cccccc"/>
 <path d="m4.2773438 5.9179688c-0.3394894 0.0098681-0.6206695 0.0390625-0.7773438 0.0390624v1c0.4883313 0 1.1750625-0.089282 1.6992188 0.019531 0.2620779 0.054407 0.457164 0.1495028 0.5820312 0.28125 0.1248672 0.1317478 0.21875 0.3143805 0.21875 0.699219 0 0.4065314-0.0870253 0.6216406-0.1796875 0.7460938s-0.2088461 0.1925046-0.3945313 0.2402344c-0.254364 0.0653835-0.6269438 0.027373-0.9765624 0.0097656-0.1365135-0.0055067-0.3216885-0.0359624-0.4199219-0.03125-0.059164 0.00284-0.1114718 0.00747-0.1601563 0.013672-0.024342 0.0031-0.045995 0.00722-0.076172 0.013672-0.030177 0.00645-0.051218-0.00402-0.1640626 0.060547-0.014106 0.00807-0.048502 0.03101-0.048828 0.03125-3.262e-4 2.399e-4 -0.064225 0.056404-0.064453 0.056641-2.279e-4 2.371e-4 -0.077996 0.107188-0.078125 0.1074219-1.287e-4 2.34e-4 -0.058565 0.179457-0.058594 0.1796875-2.85e-5 2.305e-4 0.019459 0.214617 0.019531 0.2148438 7.23e-5 2.267e-4 0.081857 0.1560274 0.082031 0.15625 1.741e-4 2.226e-4 0.085662 0.085719 0.085937 0.085937 2.769e-4 2.181e-4 0.04763 0.032438 0.066406 0.042969 0.15021 0.08425 0.1640964 0.060088 0.1972656 0.064453 0.066338 0.00873 0.1088795 0.00781 0.1699219 0.00781 0.0767 0 0.2946064-0.020827 0.4101562-0.011719 0.1493167 0.00656 0.26734-2.643e-4 0.4472657 0.033203 0.3142444 0.0584558 0.6310052 0.1739568 0.8320327 0.3300808 0.2010275 0.156123 0.3105469 0.311468 0.3105469 0.648437 0 0.363148-0.0974046 0.52521-0.2617188 0.667969-0.1643141 0.142759-0.4390196 0.252323-0.7734374 0.310547-0.6688357 0.116448-1.4765047 0.021484-1.9648438 0.021484v1c0.3133609 0 1.2559794 0.116234 2.1367188-0.03711 0.4403695-0.076669 0.8911422-0.220492 1.2578124-0.539062 0.3666704-0.318569 0.6054688-0.826555 0.6054688-1.423828 0-0.62345-0.3042775-1.1342476-0.6972656-1.4394529-0.0030274-0.0023511-0.0067305-0.0015745-0.0097656-0.0039062 0.1080899-0.0831299 0.2426937-0.095526 0.3300781-0.2128907 0.2508221-0.3368754 0.3769531-0.7898612 0.3769531-1.34375 0-0.5755813-0.1798172-1.0590903-0.4921875-1.3886718s-0.7177569-0.4898244-1.1054687-0.5703125c-0.387712-0.0804882-0.7855107-0.0899463-1.125-0.0800781zm5.7167972 0.0820312-1.494141 0.5v1l1.5-0.5 0.0059 5h-1.0059v1h3v-1h-1v-6z" style="fill:#ffffff"/>
</svg>

<svg xmlns="http://www.w3.org/2000/svg" width="16" height="16" version="1">
 <path style="fill:#4384f1" d="m 3e-7,3.4286 0,11.429 c 0,0.632 0.50971,1.142 1.1429,1.142 l 13.7139997,0 c 0.633,0 1.143,-0.51 1.143,-1.143 l 0,-11.429 -15.9999997,0 z"/>
 <path style="fill:#cccccc" d="m 1.1429,3e-7 13.714,0 c 0.633,0 1.143,0.50971 1.143,1.1429 l 0,2.8571 -16,0 3e-7,-2.8571 c 0,-0.63319 0.50971,-1.1429 1.1429,-1.1429 z"/>
 <path style="fill:#ffffff" d="M 4.2773438,5.9179688 C 3.9378544,5.9278369 3.6566743,5.9570313 3.5,5.9570312 l 0,1 c 0.4883313,0 1.1750625,-0.089282 1.6992188,0.019531 0.2620779,0.054407 0.457164,0.1495028 0.5820312,0.28125 C 5.9061172,7.38956 6,7.5721927 6,7.9570312 6,8.3635626 5.9129747,8.5786718 5.8203125,8.703125 5.7276503,8.8275782 5.6114664,8.8956296 5.4257812,8.9433594 5.1714172,9.0087429 4.7988374,8.9707324 4.4492188,8.953125 4.3127053,8.9476183 4.1275303,8.9171626 4.0292969,8.921875 3.9701329,8.924715 3.9178251,8.929345 3.8691406,8.935547 3.8447986,8.938647 3.8231456,8.942767 3.7929686,8.949219 3.7627916,8.955669 3.7417506,8.945199 3.628906,9.009766 3.6148,9.017836 3.580404,9.040776 3.580078,9.041016 3.5797518,9.0412559 3.515853,9.09742 3.515625,9.097657 3.5153971,9.0978941 3.437629,9.204845 3.4375,9.2050789 c -1.287e-4,2.34e-4 -0.058565,0.179457 -0.058594,0.1796875 -2.85e-5,2.305e-4 0.019459,0.214617 0.019531,0.2148438 7.23e-5,2.267e-4 0.081857,0.1560274 0.082031,0.15625 1.741e-4,2.226e-4 0.085662,0.085719 0.085937,0.085937 2.769e-4,2.181e-4 0.04763,0.032438 0.066406,0.042969 0.15021,0.08425 0.1640964,0.060088 0.1972656,0.064453 0.066338,0.00873 0.1088795,0.00781 0.1699219,0.00781 0.0767,0 0.2946064,-0.020827 0.4101562,-0.011719 0.1493167,0.00656 0.26734,-2.643e-4 0.4472657,0.033203 C 5.1716648,10.036969 5.4884256,10.15247 5.6894531,10.308594 5.8904806,10.464717 6,10.620062 6,10.957031 6,11.320179 5.9025954,11.482241 5.7382812,11.625 5.5739671,11.767759 5.2992616,11.877323 4.9648438,11.935547 4.2960081,12.051995 3.4883391,11.957031 3,11.957031 l 0,1 c 0.3133609,0 1.2559794,0.116234 2.1367188,-0.03711 C 5.5770883,12.843252 6.027861,12.699429 6.3945312,12.380859 6.7612016,12.06229 7,11.554304 7,10.957031 7,10.333581 6.6957225,9.8227834 6.3027344,9.5175781 6.299707,9.515227 6.2960039,9.5160036 6.2929688,9.5136719 6.4010587,9.430542 6.5356625,9.4181459 6.6230469,9.3007812 6.873869,8.9639058 7,8.51092 7,7.9570312 7,7.3814499 6.8201828,6.8979409 6.5078125,6.5683594 6.1954422,6.2387779 5.7900556,6.078535 5.4023438,5.9980469 5.0146318,5.9175587 4.6168331,5.9081006 4.2773438,5.9179688 Z M 9.994141,6 8.5,6.5 8.5,7.5 10,7 10.0059,12 9,12 l 0,1 3,0 0,-1 -1,0 0,-6 z"/>
</svg>
